.icons/Gruvbox-Plus-Dark/apps/16/findfileconflicts.svg

<svg width="16" height="16" version="1.1" xmlns="http://www.w3.org/2000/svg">
  <defs>
    <style type="text/css" id="current-color-scheme">.ColorScheme-Text { color:#ebdbb2; } .ColorScheme-Highlight { color:#458588; }</style>
  </defs>
  <path class="ColorScheme-Text" fill="currentColor" d="m8.09 4.393-1.671 3.641h1.723l-0.686 1.36-0.712-0.359 0.148 2.572 0.202-0.133 1.952-1.279-0.713-0.359 1.403-2.784h-1.787l1.033-2.25-0.892-0.409zm3.891 1.35c0.111 2e-3 0.205 0.094 0.205 0.206v0.776h3.61c0.113 0 0.204 0.092 0.204 0.206v1.551c0 0.114-0.091 0.206-0.204 0.206h-3.61v0.775c0 0.184-0.224 0.276-0.353 0.146l-1.551-1.757c-0.079-0.081-0.079-0.211 0-0.292l1.551-1.757c0.039-0.039 0.092-0.061 0.148-0.06zm-7.962 0c-0.111 2e-3 -0.205 0.094-0.205 0.206v0.776h-3.61c-0.113 0-0.204 0.092-0.204 0.206v1.551c0 0.114 0.091 0.206 0.204 0.206h3.61v0.775c0 0.184 0.224 0.276 0.353 0.146l1.551-1.757c0.079-0.081 0.079-0.211 0-0.292l-1.551-1.757c-0.039-0.039-0.092-0.061-0.148-0.06z"/>
</svg>

<svg xmlns="http://www.w3.org/2000/svg" style="isolation:isolate" width="16" height="16" viewBox="0 0 16 16">
 <defs>
  <style id="current-color-scheme" type="text/css">
   .ColorScheme-Text { color:#ebdbb2; } .ColorScheme-Highlight { color:#458588; }
  </style>
  <linearGradient id="arrongin" x1="0%" x2="0%" y1="0%" y2="100%">
   <stop offset="0%" style="stop-color:#d79921; stop-opacity:1"/>
   <stop offset="100%" style="stop-color:#b57614; stop-opacity:1"/>
  </linearGradient>
  <linearGradient id="aurora" x1="0%" x2="0%" y1="0%" y2="100%">
   <stop offset="0%" style="stop-color:#83a598; stop-opacity:1"/>
   <stop offset="100%" style="stop-color:#b16286; stop-opacity:1"/>
  </linearGradient>
  <linearGradient id="fitdance" x1="0%" x2="0%" y1="0%" y2="100%">
   <stop offset="0%" style="stop-color:#8ec07c; stop-opacity:1"/>
   <stop offset="100%" style="stop-color:#458588; stop-opacity:1"/>
  </linearGradient>
  <linearGradient id="oomox" x1="0%" x2="0%" y1="0%" y2="100%">
   <stop offset="0%" style="stop-color:#458588; stop-opacity:1"/>
   <stop offset="100%" style="stop-color:#928374; stop-opacity:1"/>
  </linearGradient>
  <linearGradient id="rainblue" x1="0%" x2="0%" y1="0%" y2="100%">
   <stop offset="0%" style="stop-color:#b8bb26; stop-opacity:1"/>
   <stop offset="100%" style="stop-color:#076678; stop-opacity:1"/>
  </linearGradient>
  <linearGradient id="sunrise" x1="0%" x2="0%" y1="0%" y2="100%">
   <stop offset="0%" style="stop-color: #fe8019; stop-opacity:1"/>
   <stop offset="100%" style="stop-color: #fabd2f; stop-opacity:1"/>
  </linearGradient>
  <linearGradient id="telinkrin" x1="0%" x2="0%" y1="0%" y2="100%">
   <stop offset="0%" style="stop-color: #83a598; stop-opacity:1"/>
   <stop offset="100%" style="stop-color: #83a598; stop-opacity:1"/>
  </linearGradient>
  <linearGradient id="60spsycho" x1="0%" x2="0%" y1="0%" y2="100%">
   <stop offset="0%" style="stop-color: #fb4934; stop-opacity:1"/>
   <stop offset="25%" style="stop-color: #fabd2f; stop-opacity:1"/>
   <stop offset="50%" style="stop-color: #fe8019; stop-opacity:1"/>
   <stop offset="100%" style="stop-color: #689d6a; stop-opacity:1"/>
  </linearGradient>
  <linearGradient id="90ssummer" x1="0%" x2="0%" y1="0%" y2="100%">
   <stop offset="0%" style="stop-color: #b16286; stop-opacity:1"/>
   <stop offset="20%" style="stop-color: #8ec07c; stop-opacity:1"/>
   <stop offset="50%" style="stop-color: #fabd2f; stop-opacity:1"/>
   <stop offset="100%" style="stop-color: #458588; stop-opacity:1"/>
  </linearGradient>
  <linearGradient id="cyberneon" x1="0%" x2="0%" y1="0%" y2="100%">
    <stop offset="0" style="stop-color:#83a598; stop-opacity:1"/>
    <stop offset="1" style="stop-color:#b16286; stop-opacity:1"/>
  </linearGradient>
 </defs>
 <path style="fill:currentColor" class="ColorScheme-Text" fill-rule="evenodd" d="M 8.09 4.393 L 6.419 8.034 L 8.142 8.034 L 7.456 9.394 L 6.744 9.035 L 6.892 11.607 L 7.094 11.474 L 9.046 10.195 L 8.333 9.836 L 9.736 7.052 L 7.949 7.052 L 8.982 4.802 L 8.09 4.393 L 8.09 4.393 Z M 11.981 5.743 C 12.092 5.745 12.186 5.837 12.186 5.949 L 12.186 6.725 L 15.796 6.725 C 15.909 6.725 16 6.817 16 6.931 L 16 8.482 C 16 8.596 15.909 8.688 15.796 8.688 L 12.186 8.688 L 12.186 9.463 C 12.186 9.647 11.962 9.739 11.833 9.609 L 10.282 7.852 C 10.203 7.771 10.203 7.641 10.282 7.56 L 11.833 5.803 C 11.872 5.764 11.925 5.742 11.981 5.743 L 11.981 5.743 Z M 4.019 5.743 C 3.908 5.745 3.814 5.837 3.814 5.949 L 3.814 6.725 L 0.204 6.725 C 0.091 6.725 0 6.817 0 6.931 L 0 8.482 C 0 8.596 0.091 8.688 0.204 8.688 L 3.814 8.688 L 3.814 9.463 C 3.814 9.647 4.038 9.739 4.167 9.609 L 5.718 7.852 C 5.797 7.771 5.797 7.641 5.718 7.56 L 4.167 5.803 C 4.128 5.764 4.075 5.742 4.019 5.743 Z"/>
</svg>
